X:101
T: Gay Lass (The)
N: O'Farrell's Pocket Companion v.2 (Sky ed. p.57-8)
N: "Irish"
M: 6/8
L: 1/8
R: jig
Q: 320
K: D
d/c/|B>cB BAF|B2E EFA|B/c/dB BAF|A2D DFA|
BcB BAF|B2E E2g|fdB BAF|A2D D2 :|
P:2
A|d2d fef|d2B B2d|cde efd|ecA ABc|
ded fef|d2B B2c|dcB BAF|A2D D2 :|
P:3
z|dfe dAF|B2E EFA|dfd AGF|A2D D3|
dfe dAF|B2E E2g|fdB BAF|A2D D2 :|
P:4
F|GBA G2E|G2E E2F|G/A/GF G2E|F2D D2F|
GBA G2E|G2E E2g|fdB BAF|A2D D2 :|
